symbols/web/assistant/materialsymbolsrounded/assistant_wght100_24px.svg

<svg xmlns="http://www.w3.org/2000/svg" height="24" width="24"><path d="M11.475 20.625 9.55 18.7H5.8q-.65 0-1.075-.425Q4.3 17.85 4.3 17.2V4.8q0-.65.425-1.075Q5.15 3.3 5.8 3.3h12.4q.65 0 1.075.425.425.425.425 1.075v12.4q0 .65-.425 1.075-.425.425-1.075.425h-3.75l-1.925 1.925q-.225.225-.525.225-.3 0-.525-.225ZM5.8 18h4.05L12 20.15 14.15 18h4.05q.35 0 .575-.225Q19 17.55 19 17.2V4.8q0-.35-.225-.575Q18.55 4 18.2 4H5.8q-.35 0-.575.225Q5 4.45 5 4.8v12.4q0 .35.225.575Q5.45 18 5.8 18ZM5 4v14V4Zm8.075 8.075 1.55-.7q.25-.1.25-.375t-.25-.375l-1.55-.7-.7-1.55q-.1-.25-.375-.25t-.375.25l-.7 1.55-1.55.7q-.25.1-.25.375t.25.375l1.55.7.7 1.55q.1.25.375.25t.375-.25Z"/></svg>

<svg xmlns="http://www.w3.org/2000/svg" height="24" width="24"><path d="M11.475 20.625 9.55 18.7H5.8Q5.15 18.7 4.725 18.275Q4.3 17.85 4.3 17.2V4.8Q4.3 4.15 4.725 3.725Q5.15 3.3 5.8 3.3H18.2Q18.85 3.3 19.275 3.725Q19.7 4.15 19.7 4.8V17.2Q19.7 17.85 19.275 18.275Q18.85 18.7 18.2 18.7H14.45L12.525 20.625Q12.3 20.85 12 20.85Q11.7 20.85 11.475 20.625ZM5.8 18H9.85L12 20.15L14.15 18H18.2Q18.55 18 18.775 17.775Q19 17.55 19 17.2V4.8Q19 4.45 18.775 4.225Q18.55 4 18.2 4H5.8Q5.45 4 5.225 4.225Q5 4.45 5 4.8V17.2Q5 17.55 5.225 17.775Q5.45 18 5.8 18ZM5 4Q5 4 5 4.225Q5 4.45 5 4.8V17.2Q5 17.55 5 17.775Q5 18 5 18Q5 18 5 17.775Q5 17.55 5 17.2V4.8Q5 4.45 5 4.225Q5 4 5 4ZM13.075 12.075 14.625 11.375Q14.875 11.275 14.875 11Q14.875 10.725 14.625 10.625L13.075 9.925L12.375 8.375Q12.275 8.125 12 8.125Q11.725 8.125 11.625 8.375L10.925 9.925L9.375 10.625Q9.125 10.725 9.125 11Q9.125 11.275 9.375 11.375L10.925 12.075L11.625 13.625Q11.725 13.875 12 13.875Q12.275 13.875 12.375 13.625Z"/></svg>
